X: 14
T: Zante
O: Greece
M: 4/4
L: 1/4
K: Dm
"Dm"A2 A G/F/ | "Bb"ED "A"^CE | "Dm"D4-|D4 |\
 "A"E2 E>F | "Gm"G>A B2 | "Dm"A4-|A4 ||
"Bb"d2 dc | "Gm"B2-BA | GA B2 | "Dm"A4 |\
"Bb"F2 FG | "A"F E/D/ ^CE | "Dm"D4-|D4 ||
"Dm"f2 f>f | "Gm"eg "A"f>^c | "Dm"d4-|d4 |\
"Bb"d2 de | dc "C"G>B | "F"A4-|"A"A4 ||
"Bb"d2 "C"cB | "Dm"A>D EF | "Gm"GA B-B/c/4B/4 | "Dm"A4 |\
"Dm"f2 "Gm"fg | "A"f e/d/ ^ce | "Dm"d4-|d4 ||
